icons-rebrand/svg/approvals-regular.svg

<svg width="32" height="32" viewBox="0 0 32 32" fill="none" xmlns="http://www.w3.org/2000/svg">
<path d="M21.0049 2.25293H11.0049C9.74559 2.25452 8.53833 2.75547 7.64788 3.64593C6.75743 4.53638 6.25647 5.74364 6.25488 7.00293V17.0059C6.25647 18.2652 6.75743 19.4725 7.64788 20.3629C8.53833 21.2534 9.74559 21.7543 11.0049 21.7559H21.0049C22.2643 21.7546 23.4717 21.2537 24.3622 20.3632C25.2527 19.4727 25.7536 18.2653 25.7549 17.0059V7.00293C25.7533 5.74364 25.2523 4.53638 24.3619 3.64593C23.4714 2.75547 22.2642 2.25452 21.0049 2.25293ZM24.2549 17.0059C24.2538 17.8676 23.9111 18.6936 23.3018 19.3029C22.6925 19.9121 21.8665 20.2549 21.0049 20.2559H11.0049C10.1433 20.2549 9.31722 19.9121 8.70795 19.3029C8.09869 18.6936 7.75594 17.8676 7.75488 17.0059V7.00293C7.75594 6.1413 8.09869 5.31527 8.70795 4.706C9.31722 4.09674 10.1433 3.75399 11.0049 3.75293H21.0049C21.8665 3.75399 22.6925 4.09674 23.3018 4.706C23.9111 5.31527 24.2538 6.1413 24.2549 7.00293V17.0059ZM21.0049 24.2529H11.0049C9.74559 24.2545 8.53833 24.7555 7.64788 25.6459C6.75743 26.5364 6.25647 27.7436 6.25488 29.0029C6.25488 29.2018 6.3339 29.3926 6.47455 29.5333C6.6152 29.6739 6.80597 29.7529 7.00488 29.7529C7.2038 29.7529 7.39456 29.6739 7.53521 29.5333C7.67587 29.3926 7.75488 29.2018 7.75488 29.0029C7.75594 28.1413 8.09869 27.3153 8.70795 26.706C9.31722 26.0967 10.1433 25.754 11.0049 25.7529H21.0049C21.8665 25.754 22.6925 26.0967 23.3018 26.706C23.9111 27.3153 24.2538 28.1413 24.2549 29.0029C24.2549 29.2018 24.3339 29.3926 24.4746 29.5333C24.6152 29.6739 24.806 29.7529 25.0049 29.7529C25.2038 29.7529 25.3946 29.6739 25.5352 29.5333C25.6759 29.3926 25.7549 29.2018 25.7549 29.0029C25.7533 27.7436 25.2523 26.5364 24.3619 25.6459C23.4714 24.7555 22.2642 24.2545 21.0049 24.2529Z" fill="#0F0F0F"/>
<path d="M20.4702 9.05192L14.5862 14.9389L11.5302 11.8819C11.4081 11.7561 11.2458 11.677 11.0715 11.6582C10.8971 11.6395 10.7218 11.6824 10.5757 11.7794C10.4297 11.8764 10.3222 12.0214 10.2718 12.1894C10.2215 12.3573 10.2315 12.5376 10.3002 12.6989C10.3401 12.7904 10.3979 12.873 10.4702 12.9419L14.0552 16.5299C14.1958 16.6704 14.3864 16.7493 14.5852 16.7493C14.7839 16.7493 14.9745 16.6704 15.1152 16.5299L21.5302 10.1129C21.6038 10.0443 21.663 9.96146 21.7039 9.86946C21.7449 9.77746 21.767 9.67814 21.7688 9.57744C21.7705 9.47674 21.752 9.37671 21.7143 9.28332C21.6766 9.18993 21.6204 9.1051 21.5492 9.03388C21.478 8.96266 21.3931 8.90652 21.2998 8.86879C21.2064 8.83107 21.1063 8.81255 21.0056 8.81433C20.9049 8.8161 20.8056 8.83814 20.7136 8.87914C20.6216 8.92013 20.5388 8.97923 20.4702 9.05292V9.05192Z" fill="#0F0F0F"/>
</svg>

<svg width="32" height="32" viewBox="0 0 32 32" fill="none" xmlns="http://www.w3.org/2000/svg"><path d="M21.005 2.253h-10a4.756 4.756 0 0 0-4.75 4.75v10.003a4.756 4.756 0 0 0 4.75 4.75h10a4.755 4.755 0 0 0 4.75-4.75V7.003a4.756 4.756 0 0 0-4.75-4.75zm3.25 14.753a3.254 3.254 0 0 1-3.25 3.25h-10a3.254 3.254 0 0 1-3.25-3.25V7.003a3.254 3.254 0 0 1 3.25-3.25h10a3.254 3.254 0 0 1 3.25 3.25v10.003zM21.005 24.253h-10a4.756 4.756 0 0 0-4.75 4.75.75.75 0 1 0 1.5 0 3.254 3.254 0 0 1 3.25-3.25h10a3.254 3.254 0 0 1 3.25 3.25.75.75 0 1 0 1.5 0 4.756 4.756 0 0 0-4.75-4.75z" fill="#0F0F0F"/><path d="M20.47 9.052l-5.884 5.887-3.056-3.057a.751.751 0 0 0-1.23.817.75.75 0 0 0 .17.243l3.585 3.588a.75.75 0 0 0 1.06 0l6.415-6.417a.75.75 0 1 0-1.06-1.06z" fill="#0F0F0F"/></svg>
